X: 566
%
U:~=!turn!
T: Sandy Macdonald's
C:K.N. Macdonald
O:Scotland
B:Keith Norman MacDonald : "The Skye collection of the best reels & strathspeys extant" : 1887
Z:Ralph Palmer
N:Macdonald uses a notation I don't recognize; sort of a tenuto spanning two (identical) notes, with staccato marks. I've used a slur with staccato. rp.
N:Why the double bar section end after the 6th measure in the B part?
R:Reel
M:C
L:1/8
K:D
B | A(.d.d)B AGFE D(.d.d)F E2 E2 | A(.d.d)B AGFD | [1 ECCE D2 D:| [2 ABAB cd d2 || (gf) (.d.d) A(.d .d2) |
(gf) (.d.d) {/f}e2 e2 | (gf) dd Ad d2 | cB AB cd d2 | (gf) dd Ad d2 | gf dd {/f}e2 e2 || {/f}.g.a .f.g .e.f .d.e | .c.B .A.B .c.d d2 |]
W:Light and spirited bowing.


